X: 79
T: Preludium C-dur
C: Maria Szymanowska
%%abc-version 2.0
%%abcx-abcm2ps-target-version 5.9.1 (29 Sep 2008)
%%abc-creator hum2abc beta
%%abcx-conversion-date 2021/10/04 07:38:40
%%abc-edited-by Leszek Kubiak
%%abc-edited-by Marcin Jachim
%%abcx-initial-encoding-date 2020-06-16
%%humdrum-veritas 27464012
%%humdrum-veritas-data 4190729194
%%linebreak <none>
%%barnumbers 0
L: 1/16
M: C
N: Derived from pl-kozmzk--mzk-m-31--006_szymanowska-maria--preludium-c-dur.krn
%%staves {1 2}
V: 1 clef=treble
V: 2 clef=bass
K: C
[V:1] z16 | 
[V:2] C,, [C,E,G,][C,E,A,][C,E,B,] [C,E,C][C,E,D][C,E,E][C,E,D] [C,E,C][C,E,B,][C,E,A,][C,E,G,] [C,E,^F,][C,E,G,][C,E,A,][C,E,G,] | 
[V:1] z [DFG][DFA][DFB] [DFc][DFd][DFe][DFf] [DFe][DFd][DFc][DFB] [DFA][DFG][DFA][DFB] | 
[V:2] [B,,4D,4=F,4G,4]z4z8 | 
[V:1] [CEc][CEG][CEA][CEB] [CEc][CEd][CEe][CEd] [CEc][CEB][CEA][CEG] [CE^F][CEG][CEA][CEG] | 
[V:2] z [G,,C,][G,,C,][G,,C,] [G,,C,][G,,C,][G,,C,][G,,C,] z [G,,C,][G,,C,][G,,C,] [G,,C,][G,,C,][G,,C,][G,,C,] & C,,8C,,8 | 
[V:1] z [DFG][DFA][DFB] [DFc][DFd][DFe][DFf] [DFe][DFd][DFc][DFB] [DFA][DFG][DFA][DFB] | 
[V:2] z [D,B,][D,B,][D,B,] [D,B,][D,B,][D,B,][D,B,] z [D,G,][D,G,][D,G,] [D,G,][D,G,][D,G,][D,G,] & G,,8G,,8 | 
[V:1] [C4_E4c4]z4z !wedge![C_EG]!wedge![CEA]!wedge![CEB] [CEc][CEd][CE_e][CEd] | 
[V:2] !wedge![C,_E,G,]!wedge![C,E,G,]!wedge![C,E,A,]!wedge![C,E,B,] [C,E,C][C,E,D][C,E,_E][C,E,D][C,4E,4C4]z4 | 
[V:1] [C4_E4c4]z4z [C^F][DF][CF] [_EF][EF][DF][CF] | 
[V:2] z [C,_E,G,][C,E,_A,][C,E,_B,] [C,E,C][C,E,B,][C,E,A,][C,E,G,][_A,,8_A,8] | 
[V:1] [B,2G2] [GB_a][GBg] [Gcf][Gc_e][_EGd][EGc] [DFB][DG][DF_A][DFG] [CEc][CEG][EGe][EGc] | 
[V:2] [G,,D,G,][G,,D,G,][G,,D,G,][G,,D,G,] [G,,_E,G,][G,,E,G,][G,,E,G,][G,,E,G,] [G,,D,G,][G,,D,G,][G,,D,G,][G,,D,G,] [G,,E,G,][G,,E,G,][G,,E,G,][G,,E,G,] | 
[V:1] [DGB] [G,B,G][G,B,_A][G,B,G] [G,CF][G,C_E][_E,G,D][E,G,C] [D,F,B,][D,F,G,][D,F,_A,][D,F,G,] [C,E,C][C,E,C][E,G,_E][E,G,C] | 
[V:2] [G,,D,G,] [G,,,G,,][G,,,G,,][G,,,G,,] [G,,,G,,][G,,,G,,][G,,,G,,][G,,,G,,] [G,,,G,,][G,,,G,,][G,,,G,,][G,,,G,,] [G,,,G,,][G,,,G,,][G,,,G,,][G,,,G,,] | 
[V:1] [D,G,B,] z z2z4z [E/G/][F/A/][EG][EG] [EG] [G,B,G][G,CG][G,DG] | 
[V:2] [G,,,G,,] [^F,,^F,][G,,G,][A,,A,] [G,,G,][=F,,=F,][E,,E,][D,,D,][C,,4C,4]z !wedge![G,,,G,,]!wedge![A,,,A,,]!wedge![B,,,B,,] | 
[V:1] [G,EG] [E/G/][F/A/][EG][EG] [EG] [G,B,G][G,CG][G,DG] [G,EG][G,DG][G,EG][G,DG] [G,^CG][G,C_B][G,CA][G,EG] | 
[V:2] [C,,4C,4]z [G,,,G,,][A,,,A,,][B,,,B,,] [C,,C,][B,,,B,,][C,,C,][B,,,B,,] [A,,,A,,][A,,,A,,][A,,,A,,][^C,,^C,] | 
[V:1] [A,DF] [F/A/][G/_B/][FA][FA] [FA] [A,^CA][A,DA][A,EA] [A,DF] [F/A/][G/_B/][FA][FA] [FA] [A,^CA][A,DA][A,EA] | 
[V:2] [D,,4D,4]z [A,,,A,,][B,,,B,,][^C,,^C,][D,,4D,4]z [A,,,A,,][B,,,B,,][^C,,^C,] | 
[V:1] [A,FA][A,EA][A,FA][A,EA] [A,^DA] [A,Dc][A,DB][B,^FA] [B,EG] [G/B/][A/c/][GB][GB] [GB] [B,^DB][B,EB][B,^FB] | 
[V:2] [D,,D,][^C,,^C,][D,,D,][=C,,=C,] [B,,,B,,] [B,,,B,,][B,,,B,,][^D,,^D,][E,,4E,4]z [B,,,B,,][^C,,^C,][^D,,^D,] | 
[V:1] [B,GB] [G/B/][A/c/][GB][GB] [GB] [B,^DB][B,EB][B,^FB] [B,GB][B,FB][B,GB][B,FB] [E2B2][E2F2^A2] | 
[V:2] [E,,4E,4]z [B,,,B,,][^C,,^C,][^D,,^D,] [E,,E,][D,,D,][E,,E,][=D,,=D,] [=C,,=C,][C,,C,][C,,C,][C,,C,] | 
[V:1] [^D2B2] [B^dc'][Bdb] [Be=a][Beg][GB^f][GBe] [^FAd][FAB][FAc][FAB] [EBe][EGB][GBg][GBe] | 
[V:2] [B,,,B,,][B,,,B,,][B,,,B,,][B,,,B,,][B,,,B,,][B,,,B,,][B,,,B,,][B,,,B,,] [B,,,B,,][B,,,B,,][B,,,B,,][B,,,B,,][B,,,B,,][B,,,B,,][B,,,B,,][B,,,B,,] | 
[V:1] [^FB^d] [B,^DB][B,Dc][B,DB] [B,EA][B,EG][G,B,F][G,B,E] [F,A,^D][F,A,B,][F,A,C][F,A,B,] [E,G,E][E,G,B,][G,B,G][G,B,E] | 
[V:2] [B,,,B,,][B,,,B,,][B,,,B,,][B,,,B,,][B,,,B,,][B,,,B,,][B,,,B,,][B,,,B,,] [B,,,B,,][B,,,B,,][B,,,B,,][B,,,B,,][B,,,B,,][B,,,B,,][B,,,B,,][B,,,B,,] | 
[V:1] [^F,B,^D] [B,/B/][B,/B/][B,B][B,B] [B,B] [B/b/][B/b/][Bb][Bb] [Bb] [=F/B/][F/B/][FB][FB] [FB][FB][FB][DFB] | 
[V:2] [B,,,4B,,4]z4[G,,G,] [G,/D/][G,/D/][G,D][G,D] [G,D][G,D][G,D]G,, | 
[V:1] [CEc] [CEG][CEA][CEB] [CEc][CEd][CEe][CEd] [CEc][CEB][CEA][CEG] [CE^F][CEG][CEA][CEG] | 
[V:2] z [G,,C,][G,,C,][G,,C,] [G,,C,][G,,C,][G,,C,][G,,C,] [G,,C,][G,,C,][G,,C,][G,,C,] [G,,C,][G,,C,][G,,C,][G,,C,] & C,,16 | 
[V:1] [D=FG][D/F/G/][D/F/A/][DFG][DFG] [DFG] [d'/f'/][c'/e'/] !wedge![bd'][b/d'/][a/c'/] !wedge![gb][d'/f'/][c'/e'/]!wedge![b/d'/][a/c'/][g/b/]!wedge![f/a/][e/g/][d/f/]!wedge![c/e/][B/d/][A/c/]!wedge![G/B/][F/A/][D/B/] | 
[V:2] z [D,B,][D,B,][D,B,] [D,B,][D,B,][D,B,][D,B,] [D,G,][D,G,][D,G,][D,G,] [D,G,][D,G,][D,G,][D,G,] & G,,8G,,8 | 
[V:1] [CEc] [CEG][CEA][CEB] [CEc][CEd][CEe][CEd] [CEc][CEB][CEA][CEG] [CE^F][CEG][CEA][CEG] | 
[V:2] z [G,,C,][G,,C,][G,,C,] [G,,C,][G,,C,][G,,C,][G,,C,] [G,,C,][G,,C,][G,,C,][G,,C,] [G,,C,][G,,C,][G,,C,][G,,C,] & C,,16 | 
[V:1] [DFG][D/F/G/][D/F/A/][DFG][DFG] [DFG] [d'/f'/][c'/e'/] !wedge![bd'][b/d'/][a/c'/] !wedge![gb][d'/f'/][c'/e'/]!wedge![b/d'/][c'/e'/][b/d'/][a/c'/] !wedge![g/b/][a/c'/][g/b/][f/a/]!wedge![e/g/][f/a/][e/g/][d/f/] | 
[V:2] z [D,B,][D,B,][D,B,] [D,B,][D,B,][D,B,][D,B,] [D,B,][D,B,][D,B,][D,B,] [D,B,][D,B,][D,B,][D,B,] & G,,8G,,8 | 
[V:1] [ce][c/e/][d/f/][ce][FBd] [EAc][A/c/][B/d/][Ac][D^GB] [CFA][F/A/][=G/B/][FA][C_EA] [=EG][CE][DF][B,D] | 
[V:2] [C,2C2]>[^G,,2^G,2] [A,,2A,2]>[E,,2E,2] [F,,2F,2]>[^F,,2^F,2] G,2G,,2 | 
[V:1] [CE][c/e/][d/f/][ce][F/B/e/]d/ [EAc][A/c/][B/d/][Ac][D/^G/c/]B/ [CFA][F/A/][G/B/][FA][C_EA] !wedge![=EG]!wedge![CE]!wedge![DF]!wedge![B,D] | 
[V:2] [C,2C2]>[^G,,2^G,2] [A,,2A,2]>[E,,2E,2] [F,,2F,2]>[^F,,2^F,2] G,2G,,2 | 
[V:1] C a/g/fg/f/ ee/d/cB [Ec] _b/a/fa/g/ e(3g/f/d/ cB & x[Ae]f[Gd] e[FA][EG][DF] C [Ae]f[Gd] eA E[DF] | 
[V:2] C, !accent![^C,^C][D,D]!accent![B,,B,] [=C,=C]F,G,G,, C, [^C,^C][D,D][B,,B,] =CF,G,G,, | 
[V:1] [C4E4c4]z4z8 & C4x4x8 | 
[V:2] C, [C,E,G,][C,E,A,][C,E,B,] [C,E,C][C,E,D][C,E,E][C,E,D] [C,E,C][C,E,B,][C,E,A,][C,E,G,] [C,E,^F,][C,E,G,][C,E,A,][C,E,G,] | 
[V:1] z [GBg][Ac^f][Gd=f] [Gce] [cec'][dfb][cg_b] [fa] [af']{/f'}[ge']{/e'}[fd'] [ec'] z [d=b] z | 
[V:2] !wedge![G,,G,] [G,,G,][A,,A,][B,,B,] !wedge![C,C] [C,C][D,D][E,E] [F,F] D,E,F, G, z G,, z | 
[V:1] [cec'] [CEG][CEA][CEB] [CEc][CEd][CEe][CEd] [CEc][CEc][CEB][CEA] [CE^G][CEA][CEB][CEA] | 
[V:2] C,4z4z8 | 
[V:1] [B,E^G] [EGe][^FA^d][EB=d] [EAc] [=Fcf][B=d][=Gdg] [ce][cgc'][fa]{/e'}[dad'] [ec'] z [db] z | 
[V:2] E,, E,^F,^G, !wedge!A,A,,B,,B, C!accent!EF!accent!^F G z G, z | 
[V:1] [cec'] [E/G/][F/A/][EG][DFB] !wedge![C/E/c/]!wedge![D/F/d/]!wedge![E/G/e/]!wedge![F/A/f/] !wedge![G/B/g/]!wedge![A/c/a/]!wedge![B/d/b/]!wedge![G/B/g/] !wedge![cec'] [e/g/][f/a/][e/g/][^d/^f/][=d/=f/][c/e/] [B/d/b/][c/e/c'/][d/f/d'/][e/g/e'/][f/a/f'/][g/b/g'/][a/c'/a'/][b/d'/b'/] | 
[V:2] [C,C] z z [G,,G,] C,2[G,,2G,2] C,2 z2 [G,,2G,2][G,,2G,2] | 
[V:1] !fermata![c'8e'8c''8]!fermata!z8 |]  
[V:2] [C,,8C,8]!fermata!z8 |]  


